svg/toggle-off.svg

<?xml version="1.0" encoding="UTF-8"?>
<svg xmlns="http://www.w3.org/2000/svg" xmlns:xlink="http://www.w3.org/1999/xlink" width="32" height="32" viewBox="0 0 32 32">
<path fill-rule="nonzero" fill="rgb(0%, 0%, 0%)" fill-opacity="1" d="M 8.800781 11.601562 C 6.371094 11.605469 4.402344 13.570312 4.398438 16 C 4.402344 18.429688 6.371094 20.398438 8.800781 20.398438 C 11.230469 20.394531 13.195312 18.425781 13.199219 16 C 13.195312 13.570312 11.230469 11.605469 8.800781 11.601562 M 8.800781 19.601562 C 6.8125 19.597656 5.203125 17.988281 5.199219 16 C 5.203125 14.011719 6.8125 12.402344 8.800781 12.398438 C 10.789062 12.402344 12.398438 14.011719 12.398438 16 C 12.398438 17.988281 10.789062 19.597656 8.800781 19.601562 M 22.683594 13.316406 C 22.609375 13.242188 22.507812 13.199219 22.402344 13.199219 C 22.292969 13.199219 22.191406 13.242188 22.117188 13.316406 L 20 15.433594 L 17.882812 13.316406 C 17.726562 13.164062 17.476562 13.167969 17.324219 13.324219 C 17.167969 13.476562 17.164062 13.726562 17.316406 13.882812 L 19.433594 16 L 17.316406 18.117188 C 17.160156 18.273438 17.160156 18.527344 17.316406 18.683594 C 17.472656 18.839844 17.726562 18.839844 17.882812 18.683594 L 20 16.566406 L 22.117188 18.683594 C 22.191406 18.757812 22.292969 18.800781 22.398438 18.800781 C 22.507812 18.800781 22.609375 18.757812 22.683594 18.683594 C 22.757812 18.609375 22.800781 18.507812 22.800781 18.402344 C 22.800781 18.292969 22.757812 18.191406 22.683594 18.117188 L 20.566406 16 L 22.683594 13.882812 C 22.761719 13.808594 22.800781 13.707031 22.800781 13.597656 C 22.800781 13.492188 22.761719 13.390625 22.683594 13.316406 M 23.199219 8.800781 L 8.800781 8.800781 C 4.832031 8.800781 1.601562 12.03125 1.601562 16 C 1.601562 19.96875 4.832031 23.199219 8.800781 23.199219 L 23.199219 23.199219 C 27.167969 23.199219 30.398438 19.96875 30.398438 16 C 30.398438 12.03125 27.167969 8.800781 23.199219 8.800781 M 23.199219 21.601562 L 8.800781 21.601562 C 5.707031 21.597656 3.203125 19.09375 3.199219 16 C 3.203125 12.90625 5.707031 10.402344 8.800781 10.398438 L 23.199219 10.398438 C 26.292969 10.402344 28.796875 12.90625 28.800781 16 C 28.796875 19.09375 26.292969 21.597656 23.199219 21.601562 "/>
</svg>

<svg role="img" viewBox="0 0 32 32" xmlns="http://www.w3.org/2000/svg"><path d="M8.8 11.602A4.406 4.406 0 0 0 4.399 16a4.404 4.404 0 0 0 4.403 4.398A4.405 4.405 0 0 0 13.199 16a4.403 4.403 0 0 0-4.398-4.398m0 8A3.61 3.61 0 0 1 5.199 16a3.61 3.61 0 0 1 3.602-3.602 3.602 3.602 0 0 1 0 7.204m13.883-6.286a.4.4 0 0 0-.567 0L20 15.434l-2.117-2.118a.395.395 0 0 0-.559.008.395.395 0 0 0-.008.559L19.434 16l-2.118 2.117a.4.4 0 0 0 .567.567L20 16.566l2.117 2.118a.4.4 0 0 0 .684-.282.4.4 0 0 0-.117-.285L20.566 16l2.118-2.117a.4.4 0 0 0 .117-.285.38.38 0 0 0-.117-.282m.515-4.515H8.801C4.832 8.8 1.6 12.03 1.6 16s3.231 7.2 7.2 7.2h14.398c3.969 0 7.2-3.231 7.2-7.2s-3.231-7.2-7.2-7.2m0 12.802H8.801A5.606 5.606 0 0 1 3.199 16a5.606 5.606 0 0 1 5.602-5.602h14.398A5.606 5.606 0 0 1 28.801 16a5.606 5.606 0 0 1-5.602 5.602" fill="rgb(0%, 0%, 0%)"/></svg>
